X: 36807
T: Shetland Night In London
R: waltz
M: 3/4
K: Amixolydian
|:A3 B BA|c3 A BA|GddBBG|FddAAF|
A3 B BA|c3 A BA|GF EG FD|B,/A,/G, A,B, CE|
A3 B BA|c3 A BA|G>A BG AG|FA de fa|
zA AB ce|a3 e fe|dc/d/ eA BA|GA A4||
|:fg2 f ga|ef2 e dB|eaaccA|eaaccA|
fg2 f ga|ef2 e dB|eaaccB|BA A4:|
|:AB ceeA|Bc e2 A2|ed d=c cB|=cd/c/ BA BG|
AB ceeA|Bc e2 A2|ed d=c cB|A2 G2 Az:|

